X: 78
T: McLEAN'S LAMENTATION
B: O'Neill's 78
M: 6/8
L: 1/8
Z: Transcribed by John Chambers <jc@trillian.mit.edu>
N: "Slow"
N: "Collected by F.O'Neill"
K:D
  (TAGE) (DEG) | (TAGE) (TGEC) | (TAGE) (DEG) | AB=c (E2{FE}D) |
| (TAGE) (DE).G | (TAGE) (TGEC) | (TAGE) (TcBA) | (TGED) D2 ||
|| ((3A/B/c/) \
| d>ed ded | (T=cBc) (TEDC) | d>ed ded | (TcAc) d2A |
|  d>ed ded | (T=cBc) (TEDC) | (TAGE) (TcBA) | (TGED) D2 ||
|| D \
| (DFA) (DFA) | (CEG) .E.D.C | (DFA) (DFA) | .G.A.B (TBAF) |
| (DFA) (DFA) | .G.E.c | CDE | (TAGE) (TcBA) | (TGED) D2 ||


